src/assets/images/news.svg

<svg fill="none" height="48" viewBox="0 0 48 48" width="48" xmlns="http://www.w3.org/2000/svg"><path d="m33.8187 26.8282h12.9166c-1.0591 9.3078-7.768 17.0242-16.4971 19.6695l-29.0057-29.0082c1.23435-4.0568 3.55419-7.69902 6.70869-10.5328 3.15451-2.83378 7.02361-4.75132 11.18901-5.54531 4.1655-.793983 8.4687-.434193 12.4444 1.04047 3.9758 1.47466 7.4728 4.00808 10.1129 7.32635m-40.6875 20.40059 16.5514 16.5514c-3.8461-1.019-7.3671-3.0062-10.22734-5.7719-2.8603-2.7658-4.96456-6.2181-6.11223-10.0278z" stroke="#000" stroke-linecap="round" stroke-linejoin="round" stroke-width="2"/></svg>

<svg width="48" height="48" viewBox="0 0 48 48" fill="none" xmlns="http://www.w3.org/2000/svg">
<path d="M33.8187 26.8282H46.7353C45.6762 36.136 38.9673 43.8524 30.2382 46.4977L1.2325 17.4895C2.46685 13.4327 4.78669 9.79048 7.94119 6.9567C11.0957 4.12292 14.9648 2.20538 19.1302 1.41139C23.2957 0.617407 27.5989 0.977197 31.5746 2.45186C35.5504 3.92652 39.0474 6.45994 41.6875 9.77821M1 30.1788L17.5514 46.7302C13.7053 45.7112 10.1843 43.724 7.32406 40.9583C4.46376 38.1925 2.3595 34.7402 1.21183 30.9305L1 30.1788V30.1788Z" stroke="black" stroke-width="2" stroke-linecap="round" stroke-linejoin="round"/>
</svg>
